<?xml version="1.0" encoding="UTF-8"?>
<map version="1.10" tiledversion="1.11.2" orientation="orthogonal" renderorder="right-down" width="46" height="14" tilewidth="32" tileheight="32" infinite="0" nextlayerid="16" nextobjectid="10">
 <tileset firstgid="1" source="../Terrain (32x32).tsx"/>
 <tileset firstgid="248" name="Decorations (32x32)" tilewidth="32" tileheight="32" tilecount="42" columns="7">
  <image source="Kings and Pigs/Sprites/14-TileSets/Decorations (32x32).png" width="224" height="192"/>
 </tileset>
 <tileset firstgid="290" source="../Decorations.tsx"/>
 <layer id="2" name="BottomLayer" width="46" height="14">
  <data encoding="csv">
155,155,155,155,155,155,155,155,155,155,155,155,155,155,155,155,155,155,155,155,155,155,155,155,155,155,155,155,155,155,155,155,155,155,155,155,155,155,155,155,155,155,155,155,155,155,
155,135,136,136,136,136,136,136,136,136,136,136,136,136,136,136,136,136,136,136,136,136,136,136,136,136,136,136,136,136,136,136,136,136,136,136,136,136,136,136,136,136,136,136,136,136,
155,154,155,155,155,155,155,155,155,155,155,155,155,155,155,155,155,155,155,155,155,155,155,155,155,155,155,155,155,155,155,155,155,155,155,155,155,155,155,155,155,155,155,155,155,155,
155,154,155,155,155,155,155,155,155,155,155,155,155,174,174,174,174,174,174,174,174,155,155,155,155,155,155,155,155,155,155,155,155,155,155,155,155,155,155,155,155,155,155,155,155,155,
155,154,155,155,155,155,155,155,155,155,155,155,155,155,155,155,155,155,155,155,155,155,155,155,155,155,155,174,155,155,155,155,155,155,155,155,155,155,174,174,174,174,174,174,174,155,
155,154,155,155,155,155,155,155,155,155,155,174,155,136,136,136,136,136,136,136,136,155,155,155,155,155,155,155,155,155,155,155,155,155,155,155,155,155,155,155,155,155,155,155,155,155,
155,154,155,155,155,155,155,155,155,155,155,155,155,155,155,155,155,155,155,155,155,155,155,174,174,174,155,136,155,174,155,155,155,155,174,174,155,155,136,136,136,136,136,136,136,155,
155,154,155,155,155,174,174,174,174,174,155,136,155,155,155,155,155,155,155,155,155,155,155,155,155,155,155,155,155,155,155,155,155,156,155,155,154,155,155,155,155,155,155,155,155,155,
155,154,155,155,155,155,155,155,155,155,155,155,155,155,155,155,155,155,155,155,155,155,155,136,136,136,155,155,155,136,155,155,155,156,155,155,154,155,155,155,155,155,155,155,155,155,
155,154,155,155,155,136,136,136,136,136,155,155,155,155,155,155,155,155,155,155,155,155,155,155,155,155,155,155,155,155,155,174,174,175,155,155,154,155,155,155,155,155,155,155,155,155,
155,154,155,155,155,155,155,155,155,155,155,174,174,174,174,174,155,155,155,155,155,155,155,155,155,155,155,155,174,174,174,155,155,155,155,155,154,155,155,155,155,155,155,155,155,155,
155,173,174,174,174,174,174,174,174,174,175,155,155,155,155,155,174,174,155,155,155,155,155,155,174,174,174,175,155,155,155,155,155,155,155,155,173,174,174,174,174,174,174,174,174,174,
155,155,155,155,155,155,155,155,155,155,155,155,155,155,155,155,155,155,155,155,155,155,155,155,155,155,155,155,155,155,155,155,155,155,155,155,155,155,155,155,155,155,155,155,155,155,
155,155,155,155,155,155,155,155,155,155,155,155,155,155,155,155,155,155,155,155,155,155,155,155,155,155,155,155,155,155,155,155,155,155,155,155,155,155,155,155,155,155,155,155,155,155
</data>
 </layer>
 <layer id="5" name="Decorations" width="46" height="14">
  <data encoding="csv">
0,0,0,0,0,0,0,0,0,0,0,0,0,0,0,0,0,0,0,0,0,0,0,0,0,0,0,0,0,0,0,0,0,0,0,0,0,0,0,0,0,0,0,0,0,0,
0,0,0,0,0,0,0,0,0,0,0,0,0,0,0,0,0,0,0,0,0,0,0,0,0,0,0,0,0,0,0,0,0,0,0,0,0,0,0,0,0,0,0,0,0,0,
0,0,0,256,0,0,0,0,0,0,0,0,0,0,0,0,0,0,0,0,0,0,256,0,0,0,0,0,0,0,0,0,0,0,0,0,0,0,0,0,0,0,0,0,0,0,
0,0,0,263,0,0,0,0,0,0,0,0,0,0,0,0,0,0,0,0,0,0,263,0,0,0,0,0,0,0,0,0,0,0,0,0,0,0,0,0,0,0,0,0,0,0,
0,0,0,263,0,0,0,0,0,0,0,0,0,0,0,0,0,0,0,0,0,0,263,0,0,0,0,0,0,0,0,0,0,0,0,0,0,0,0,0,0,0,0,0,0,0,
0,0,0,263,0,0,0,0,0,0,0,0,0,0,0,0,0,0,0,0,0,0,263,0,0,0,0,0,0,0,0,0,0,0,0,0,0,0,0,0,0,0,0,0,0,0,
0,0,0,270,0,0,271,272,271,272,0,0,0,0,0,0,0,0,0,0,0,0,277,0,0,0,0,0,0,0,0,0,0,0,0,0,0,0,0,0,0,0,0,0,0,0,
0,0,0,0,0,0,278,279,278,279,0,0,0,0,0,0,0,0,0,0,0,0,0,0,0,0,0,0,0,0,0,0,0,0,0,0,0,0,0,0,0,0,0,0,0,0,
0,0,0,0,0,0,0,0,0,0,0,0,0,0,0,0,0,0,0,0,0,0,0,0,0,0,0,0,0,0,0,271,272,0,0,0,0,0,0,0,0,0,0,0,0,0,
0,0,0,0,0,0,0,0,0,0,0,0,0,0,0,0,0,0,0,0,0,0,0,0,0,0,0,0,0,0,0,278,279,0,0,0,0,0,0,0,0,0,0,0,0,0,
0,0,0,0,0,0,0,0,0,0,0,0,0,0,0,0,0,0,0,0,0,0,0,0,0,0,0,0,0,0,0,0,0,0,0,0,0,0,0,0,0,0,0,0,0,0,
0,0,0,0,0,0,0,0,0,0,0,0,0,0,0,0,0,0,0,0,0,0,0,0,0,0,0,0,0,0,0,0,0,0,0,0,0,0,0,0,0,0,0,0,0,0,
0,0,0,0,0,0,0,0,0,0,0,0,0,0,0,0,0,0,0,0,0,0,0,0,0,0,0,0,0,0,0,0,0,0,0,0,0,0,0,0,0,0,0,0,0,0,
0,0,0,0,0,0,0,0,0,0,0,0,0,0,0,0,0,0,0,0,0,0,0,0,0,0,0,0,0,0,0,0,0,0,0,0,0,0,0,0,0,0,0,0,0,0
</data>
 </layer>
 <objectgroup id="3" name="Object Layer 1">
  <object id="1" gid="293" x="81.2017" y="381.782" width="46" height="56"/>
  <object id="2" gid="293" x="1394.65" y="380.941" width="46" height="56"/>
 </objectgroup>
 <objectgroup id="15" name="Spawns">
  <object id="6" name="pig" x="941.667" y="314.444">
   <point/>
  </object>
  <object id="7" name="pig" x="623.611" y="253.333">
   <point/>
  </object>
  <object id="9" name="pig" x="1062.5" y="89.444">
   <point/>
  </object>
 </objectgroup>
 <layer id="1" name="Collisions" width="46" height="14">
  <data encoding="csv">
27,60,60,60,60,60,60,60,60,60,60,60,60,60,60,60,60,60,60,60,60,60,60,60,60,60,60,60,60,60,60,60,60,60,60,60,60,60,60,60,60,60,60,60,60,60,
42,0,0,0,0,0,0,0,0,0,0,0,0,0,0,0,0,0,0,0,0,0,0,0,0,0,0,0,0,0,0,0,0,0,0,0,0,0,0,0,0,0,0,0,0,0,
42,0,0,0,0,0,0,0,0,0,0,0,0,0,0,0,0,0,0,0,0,0,0,0,0,0,0,0,0,0,0,0,0,0,0,0,0,0,0,0,0,0,0,0,0,0,
42,0,0,0,0,0,0,0,0,0,0,0,0,0,0,0,0,0,0,0,0,0,0,0,0,0,0,0,0,0,0,0,0,0,0,0,0,0,0,0,0,0,0,0,0,0,
42,0,0,0,0,0,0,0,0,0,0,0,0,97,98,98,98,98,98,98,99,0,0,0,0,0,0,0,0,0,0,0,264,265,266,0,0,0,0,0,0,0,0,0,0,0,
42,0,0,0,0,0,0,0,0,0,0,0,0,0,0,0,0,0,0,0,0,0,0,0,0,0,0,101,0,0,0,0,0,0,0,0,0,0,97,98,98,98,98,98,99,0,
42,0,0,0,0,0,0,0,0,0,0,101,0,0,0,0,0,0,0,0,0,0,0,0,0,0,0,0,0,0,0,0,0,0,0,0,0,0,0,0,0,0,0,0,0,0,
42,0,0,0,0,0,0,0,0,0,0,0,0,0,0,0,0,0,0,0,0,0,0,97,98,99,0,0,0,101,0,0,0,0,21,23,0,0,0,0,0,0,0,0,0,0,
42,0,0,0,0,97,98,98,98,99,0,0,0,0,0,0,0,0,0,0,0,0,0,0,0,0,0,0,0,0,0,0,0,0,40,42,0,0,0,0,0,0,0,0,0,0,
42,0,0,0,0,0,0,0,0,0,0,0,0,0,0,0,0,0,264,265,266,0,0,0,0,0,0,0,0,0,0,0,0,0,40,42,0,0,264,265,266,0,0,0,0,0,
42,0,0,0,0,0,0,0,0,0,0,0,0,0,0,0,0,0,0,0,0,0,0,0,0,0,0,0,0,0,0,21,22,22,47,42,0,0,0,0,0,0,0,0,0,0,
42,0,0,0,0,0,0,0,0,0,0,21,22,22,22,23,0,0,0,0,0,0,0,0,0,0,0,0,21,22,22,47,41,41,41,42,0,0,0,0,0,0,0,0,0,0,
46,22,22,22,22,22,22,22,22,22,22,47,41,41,41,46,22,23,0,0,0,0,0,0,21,22,22,22,47,41,41,41,41,41,41,46,22,22,22,22,22,22,22,22,22,22,
41,41,41,41,41,41,41,41,41,41,41,41,41,41,41,41,41,42,0,0,0,0,0,0,40,41,41,41,41,41,41,41,41,41,41,41,41,41,41,41,41,41,41,41,41,41
</data>
 </layer>
</map>
